src/assets/duotone/LampSlash.svg

<svg width="24" height="24" viewBox="0 0 24 24"  xmlns="http://www.w3.org/2000/svg">
<path d="M15.2602 22.0004C15.2002 22.0004 15.1302 21.9904 15.0702 21.9704C13.0602 21.4004 10.9502 21.4004 8.94015 21.9704C8.57015 22.0704 8.18015 21.8604 8.08015 21.4904C7.97015 21.1204 8.19015 20.7304 8.56015 20.6304C10.8202 19.9904 13.2002 19.9904 15.4602 20.6304C15.8302 20.7404 16.0502 21.1204 15.9402 21.4904C15.8402 21.8004 15.5602 22.0004 15.2602 22.0004Z" />
<path d="M4.18012 19.0799C3.99012 19.0799 3.80012 19.0099 3.65012 18.8599C3.36012 18.5699 3.36012 18.0899 3.65012 17.7999L19.5001 1.94992C19.7901 1.65992 20.2701 1.65992 20.5601 1.94992C20.8501 2.23992 20.8501 2.71992 20.5601 3.00992L4.71012 18.8599C4.56012 19.0099 4.37012 19.0799 4.18012 19.0799Z" />
<path opacity="0.4" d="M16.6302 3.42007L5.49021 14.5601C4.53021 13.2001 3.97021 11.6001 3.97021 10.0501C3.97021 7.60007 5.06021 5.31007 6.97021 3.77007C8.88021 2.23007 11.3802 1.66007 13.8302 2.20007C14.8402 2.42007 15.7902 2.84007 16.6302 3.42007Z" />
<path opacity="0.4" d="M16.1699 16.9196V17.6196C16.1799 17.8796 16.1999 18.3796 15.8099 18.7796C15.5299 19.0596 15.1199 19.2096 14.5799 19.2096H9.44986C9.03986 19.2096 8.51986 19.1596 8.16986 18.8096C7.83986 18.4596 7.84986 18.0296 7.85986 17.7496V16.9196C7.40986 16.6196 6.98986 16.2796 6.60986 15.8996L17.9499 4.55957C18.4499 5.08957 18.8799 5.69957 19.2099 6.35957C21.2299 10.4196 19.2799 14.8296 16.1699 16.9196Z" />
</svg>

<?xml version="1.0" encoding="UTF-8"?>
<svg width="24" height="24" viewBox="0 0 24 24" xmlns="http://www.w3.org/2000/svg">
 <path d="m15.26 22c-0.06 0-0.13-0.01-0.19-0.03-2.01-0.57-4.12-0.57-6.13 0-0.37 0.1-0.76-0.11-0.86-0.48-0.11-0.37 0.11-0.76 0.48-0.86 2.26-0.64 4.64-0.64 6.9 0 0.37 0.11 0.59 0.49 0.48 0.86-0.1 0.31-0.38 0.51-0.68 0.51z"/>
 <path d="m4.1801 19.08c-0.19 0-0.38-0.07-0.53-0.22-0.29-0.29-0.29-0.77 0-1.06l15.85-15.85c0.29-0.29 0.77-0.29 1.06 0s0.29 0.77 0 1.06l-15.85 15.85c-0.15 0.15-0.34 0.22-0.53 0.22z"/>
 <path d="m16.63 3.4201-11.14 11.14c-0.96-1.36-1.52-2.96-1.52-4.51 0-2.45 1.09-4.74 3-6.28s4.41-2.11 6.86-1.57c1.01 0.22 1.96 0.64 2.8 1.22z" opacity=".4"/>
 <path d="m16.17 16.92v0.7c0.01 0.26 0.03 0.76-0.36 1.16-0.28 0.28-0.69 0.43-1.23 0.43h-5.13c-0.41 0-0.93-0.05-1.28-0.4-0.33-0.35-0.32-0.78-0.31-1.06v-0.83c-0.45-0.3-0.87-0.64-1.25-1.02l11.34-11.34c0.5 0.53 0.93 1.14 1.26 1.8 2.02 4.06 0.07 8.47-3.04 10.56z" opacity=".4"/>
</svg>
